icons/op-to-fullscreen-24.svg

<svg width="24" height="24" viewBox="0 0 24 24" fill="none" xmlns="http://www.w3.org/2000/svg">
<path d="M18.7573 6.09709L14.2913 10.7184L13.2816 9.70874L17.9029 5.24272H13.7864V4H20V10.2136H18.7573V6.09709Z" fill="black"/>
<path d="M10.2136 20H4V13.7864H5.24272V17.9029L9.70874 13.2815L10.7184 14.2912L6.09709 18.7572H10.2136V20Z" fill="black"/>
</svg>

<svg xmlns="http://www.w3.org/2000/svg" width="24" height="24" viewBox="0 0 24 24"><path d="m18.757 6.097-4.466 4.621-1.009-1.009 4.621-4.466h-4.117V4H20v6.214h-1.243V6.097ZM10.214 20H4v-6.214h1.243v4.117l4.466-4.622 1.009 1.01-4.621 4.466h4.117V20Z"/></svg>
